public/images/weather/sunny-rays.svg

<svg preserveAspectRatio="none" width="100%" height="100%" overflow="visible" style="display: block;" viewBox="0 0 110 110" fill="none" xmlns="http://www.w3.org/2000/svg">
<path id="Vector" d="M48.8889 6.11111C48.8889 6.11111 48.8889 0 55 0C61.1111 0 61.1111 6.11111 61.1111 6.11111V12.2222C61.1111 12.2222 61.1111 18.3333 55 18.3333C48.8889 18.3333 48.8889 12.2222 48.8889 12.2222V6.11111ZM103.889 48.8889C103.889 48.8889 110 48.8889 110 55C110 61.1111 103.889 61.1111 103.889 61.1111H97.7778C97.7778 61.1111 91.6667 61.1111 91.6667 55C91.6667 48.8889 97.7778 48.8889 97.7778 48.8889H103.889ZM12.2222 48.8889C12.2222 48.8889 18.3333 48.8889 18.3333 55C18.3333 61.1111 12.2222 61.1111 12.2222 61.1111H6.11111C6.11111 61.1111 0 61.1111 0 55C0 48.8889 6.11111 48.8889 6.11111 48.8889H12.2222ZM27.8697 22.2842C27.8697 22.2842 32.1903 26.6047 27.8697 30.9253C23.5492 35.2458 19.2286 30.9253 19.2286 30.9253L14.905 26.6078C14.905 26.6078 10.5844 22.2872 14.905 17.9636C19.2286 13.6431 23.5492 17.9636 23.5492 17.9636L27.8697 22.2842ZM92.0364 86.4508C92.0364 86.4508 96.3569 90.7714 92.0364 95.0919C87.7158 99.4125 83.3953 95.0919 83.3953 95.0919L79.0747 90.7714C79.0747 90.7714 74.7542 86.4508 79.0747 82.1303C83.3953 77.8097 87.7158 82.1303 87.7158 82.1303L92.0364 86.4508ZM90.7744 30.9253C90.7744 30.9253 86.4539 35.2458 82.1333 30.9253C77.8128 26.6047 82.1333 22.2842 82.1333 22.2842L86.4539 17.9636C86.4539 17.9636 90.7744 13.6431 95.095 17.9636C99.4156 22.2842 95.095 26.6047 95.095 26.6047L90.7744 30.9253ZM26.6078 95.0919C26.6078 95.0919 22.2872 99.4125 17.9667 95.0919C13.6461 90.7714 17.9667 86.4508 17.9667 86.4508L22.2872 82.1303C22.2872 82.1303 26.6078 77.8097 30.9283 82.1303C35.2489 86.4508 30.9283 90.7714 30.9283 90.7714L26.6078 95.0919ZM48.8889 97.7778C48.8889 97.7778 48.8889 91.6667 55 91.6667C61.1111 91.6667 61.1111 97.7778 61.1111 97.7778V103.889C61.1111 103.889 61.1111 110 55 110C48.8889 110 48.8889 103.889 48.8889 103.889V97.7778Z" fill="var(--fill-0, #FFAC33)"/>
</svg>

<svg xmlns="http://www.w3.org/2000/svg" fill="none" overflow="visible" preserveAspectRatio="none" style="display:block" viewBox="0 0 110 110"><path fill="var(--fill-0, #ffac33)" d="M48.889 6.111S48.889 0 55 0s6.111 6.111 6.111 6.111v6.111s0 6.111-6.111 6.111-6.111-6.11-6.111-6.11zm55 42.778S110 48.889 110 55s-6.111 6.111-6.111 6.111h-6.111s-6.111 0-6.111-6.111 6.11-6.111 6.11-6.111zm-91.667 0s6.111 0 6.111 6.111-6.11 6.111-6.11 6.111H6.11S0 61.111 0 55s6.111-6.111 6.111-6.111zM27.87 22.284s4.32 4.32 0 8.641-8.641 0-8.641 0l-4.324-4.317s-4.32-4.32 0-8.644c4.324-4.32 8.644 0 8.644 0zm64.166 64.167s4.32 4.32 0 8.64c-4.32 4.322-8.64 0-8.64 0l-4.321-4.32s-4.32-4.32 0-8.64 8.64 0 8.64 0zm-1.262-55.526s-4.32 4.32-8.64 0 0-8.64 0-8.64l4.32-4.321s4.32-4.32 8.641 0 0 8.64 0 8.64zM26.608 95.092s-4.32 4.32-8.641 0 0-8.641 0-8.641l4.32-4.32s4.32-4.321 8.641 0 0 8.64 0 8.64zm22.28 2.686s0-6.111 6.112-6.111c6.111 0 6.111 6.11 6.111 6.11v6.112S61.111 110 55 110s-6.111-6.111-6.111-6.111z"/></svg>
